build/img/decorativeLine1.svg

<svg width="988" height="973" fill="none" xmlns="http://www.w3.org/2000/svg"><path d="M1 98.282C207.323 24.58 383.217-33.249 458.76 24.888c75.543 58.136 13.753 172.663 59.307 219.214 45.555 46.552 108.394 29.079 161.516 6.442 53.122-22.637 158.005-66.579 213.21-10.165 55.206 56.414 1.923 162.616-17.867 209.784-19.79 47.169-52.828 153.638-1.097 206.502 51.732 52.863 106.506 30.153 150.571 85.113 44.06 54.96 1.07 131.79 52.03 183.864 50.95 52.075 87.97-2.68 135.45 45.844" stroke="url(#paint0_linear)" stroke-width="2" stroke-linecap="round" stroke-linejoin="round"/><defs><linearGradient id="paint0_linear" x1="1" y1="98.282" x2="1029.83" y2="1149.64" gradientUnits="userSpaceOnUse"><stop stop-color="#FF59F8"/><stop offset=".198" stop-color="#AE72FF"/><stop offset=".406" stop-color="#90E9ED"/><stop offset=".62" stop-color="#5CD167"/><stop offset=".825" stop-color="#FE0"/></linearGradient></defs></svg>

<svg width="988" height="973" viewBox="0 0 988 973" fill="none" xmlns="http://www.w3.org/2000/svg">
<path d="M0.999587 98.2823C207.323 24.5789 383.217 -33.249 458.76 24.8875C534.303 83.0239 472.513 197.551 518.067 244.102C563.622 290.654 626.461 273.181 679.583 250.544C732.705 227.907 837.588 183.965 892.793 240.379C947.999 296.793 894.716 402.995 874.926 450.163C855.136 497.332 822.098 603.801 873.829 656.665C925.561 709.528 980.335 686.818 1024.4 741.778C1068.46 796.738 1025.47 873.568 1076.43 925.642C1127.38 977.717 1164.4 922.962 1211.88 971.486" stroke="url(#paint0_linear)" stroke-width="2" stroke-linecap="round" stroke-linejoin="round"/>
<defs>
<linearGradient id="paint0_linear" x1="0.999588" y1="98.2823" x2="1029.83" y2="1149.64" gradientUnits="userSpaceOnUse">
<stop stop-color="#FF59F8"/>
<stop offset="0.197917" stop-color="#AE72FF"/>
<stop offset="0.40625" stop-color="#90E9ED"/>
<stop offset="0.619792" stop-color="#5CD167"/>
<stop offset="0.825321" stop-color="#FFEE00"/>
</linearGradient>
</defs>
</svg>
